X: 68
T: Song of Affection (a)
N: Derived from pawnee68.krn
O: Oklahoma, U.S.A.
N: from Pawnee Music by Frances Densmore, 1926
Z: transcribed to **kern format by David Huron, August 2000
C: Skidi and Chaui Bands, 1919
L: 1/8
M: 2/4
Q: 1/4=88
K: E clef=bass
%%linebreak <none>
G G F z[M:3/4] [I:setbarnb 2]| 
G FE2E3/ F/ | 
E2E7/F/[M:2/4] | 
E4- | 
E4 | 
G FE2 | 
G CB,2[M:3/4] | 
B,2B,> B, B, A, | 
B, B, A, A, A, F,[M:2/4] | 
E,2A, A, | 
F,2F, F, | 
E,2E,3/ F,/ | 
E,3F, | 
E,4-[M:3/4] | 
E,2E,2E,3/ F,/[M:2/4] | 
E,4 :|]  



